X: 41992
T: Walls Of Liscarrol, The
R: jig
M: 6/8
K: Dmixolydian
dcA GED|AGE D2 E|GEE cEE|GAB c3|
dcA GED|AGE D2 E|GEE cEE|GED D3:|
dcd ecA|dcd ecA|GEE cEE|GAB c3|
dcd ecA|dcd ecA|GEE cEE|GED D3:|

